hosted/assets/icon/widgets/light-mode/execute-datanode.svg

<svg width="50" height="50" viewBox="0 0 50 50" fill="none" xmlns="http://www.w3.org/2000/svg">
<path d="M15.1554 27.9253L30.7872 2.55506C30.8473 2.45763 30.9974 2.5211 30.9693 2.63205L26.6645 19.645C26.6439 19.7266 26.7269 19.7956 26.8033 19.7604L32.7575 17.0151C32.8479 16.9734 32.9371 17.0751 32.8838 17.1593L28.6871 23.7937C28.6382 23.871 28.7101 23.968 28.7982 23.9436L34.7522 22.2964C34.8401 22.2721 34.912 22.3686 34.8636 22.4459L18.7476 48.1676C18.6836 48.2696 18.5271 48.1924 18.5691 48.0795L25.2496 30.1584C25.279 30.0796 25.2038 30.0019 25.1241 30.0286L18.4927 32.2523C18.4035 32.2822 18.3261 32.1836 18.3764 32.1041L22.5808 25.4576C22.6323 25.3762 22.5503 25.2762 22.4604 25.3108L15.2764 28.0711C15.1871 28.1054 15.1052 28.0067 15.1554 27.9253Z" fill="#5FBAA8"/>
<path fill-rule="evenodd" clip-rule="evenodd" d="M28.9455 7.16413L17.0431 26.4816L22.1553 24.5173C23.0091 24.1893 23.7879 25.139 23.2989 25.912L20.2221 30.7758L24.8536 29.2228C25.6112 28.9687 26.3249 29.7065 26.0458 30.4553L21.9387 41.4731L33.1181 23.6304L29.0246 24.7628L28.798 23.9436L29.0246 24.7628C28.1873 24.9944 27.504 24.0736 27.9685 23.3393L30.8086 18.8495L27.1589 20.5323L26.803 19.7604L27.1589 20.5323C26.4335 20.8668 25.6442 20.211 25.8402 19.4366L28.9455 7.16413ZM18.2222 31.4465C18.2226 31.4463 18.223 31.4462 18.2234 31.446L18.2222 31.4465ZM14.9713 27.2776C14.9717 27.2775 14.9721 27.2773 14.9725 27.2772L14.9713 27.2776ZM30.0633 2.1092C30.6336 1.18359 32.0598 1.78658 31.7931 2.84057L27.8736 18.3308L32.4013 16.2432C33.2608 15.8469 34.1079 16.8139 33.6019 17.6138L32.8836 17.1594L33.6019 17.6138L30.4437 22.6064L34.5252 21.4772C35.3606 21.2461 36.0438 22.1627 35.5836 22.8972L19.4676 48.6189C18.86 49.5886 17.3727 48.8548 17.7724 47.7827L23.9039 31.3343L18.7627 33.0582C17.915 33.3425 17.1799 32.4052 17.6578 31.6497L18.3761 32.1041L17.6578 31.6497L20.6522 26.916L15.581 28.8645C14.7326 29.1905 13.9547 28.2533 14.4315 27.4794L30.0633 2.1092ZM24.4527 29.862L24.4529 29.8615L25.1556 30.1235L24.4529 29.8615C24.4528 29.8617 24.4527 29.8619 24.4527 29.862ZM29.4051 24.2482L29.4058 24.2471L29.4051 24.2482Z" fill="black"/>
</svg>

<svg width="50" height="50" fill="none" xmlns="http://www.w3.org/2000/svg"><path d="M15.155 27.925l15.632-25.37c.06-.097.21-.034.182.077l-4.305 17.013a.1.1 0 00.14.115l5.954-2.745c.09-.042.18.06.126.144l-4.197 6.635a.1.1 0 00.111.15l5.954-1.648a.1.1 0 01.112.15L18.748 48.168c-.064.102-.22.024-.179-.088l6.68-17.922a.1.1 0 00-.125-.13l-6.631 2.224a.1.1 0 01-.117-.148l4.205-6.646a.1.1 0 00-.12-.147l-7.185 2.76a.1.1 0 01-.12-.146z" fill="#5FBAA8"/><path fill-rule="evenodd" clip-rule="evenodd" d="M28.945 7.164L17.044 26.482l5.112-1.965c.854-.328 1.633.622 1.144 1.395l-3.077 4.864 4.632-1.553a.95.95 0 011.192 1.232L21.94 41.473 33.12 23.63l-4.094 1.133-.227-.82.227.82c-.838.231-1.521-.69-1.056-1.424l2.84-4.49-3.65 1.683-.356-.772.356.772a.95.95 0 01-1.319-1.095l3.105-12.273zM18.222 31.446h.001zm-3.25-4.168zm15.09-25.169c.57-.925 1.997-.322 1.73.732l-3.92 15.49 4.528-2.088c.86-.396 1.707.57 1.2 1.37l-.717-.454.718.455-3.158 4.992 4.081-1.129c.836-.23 1.519.686 1.059 1.42L19.468 48.62c-.608.97-2.095.236-1.696-.836l6.132-16.449-5.141 1.724c-.848.285-1.583-.653-1.105-1.408l.718.454-.718-.454 2.994-4.734-5.071 1.948c-.848.326-1.626-.61-1.15-1.385L30.063 2.11zm-5.61 27.753l.703.262-.703-.262zm4.952-5.614z" fill="#000"/></svg>
